icon/fa/helmet-un.svg

<svg xmlns="http://www.w3.org/2000/svg" viewBox="0 0 512 512"><!--! Font Awesome Free 6.1.2 by @fontawesome - https://fontawesome.com License - https://fontawesome.com/license/free (Icons: CC BY 4.0, Fonts: SIL OFL 1.1, Code: MIT License) Copyright 2022 Fonticons, Inc.--><path d="M480 224c17.7 0 32 14.3 32 32s-14.3 32-32 32H368v174.5l1.5 1.5H456c13.3 0 24 10.7 24 24s-10.7 24-24 24h-96c-6.1 0-12.9-2.3-16.5-6.6L214.9 384H87.65C39.24 384 0 344.8 0 296.3V240C0 107.5 107.5 0 240 0c127.2 0 231.2 98.91 239.5 224h.5zm-160 64h-45.6l-33.3 55.5 78.9 73.7V288zm-34.7-184.9c-3.9-5.84-11.2-8.46-17.9-6.41-6.8 2.04-11.4 8.21-11.4 15.31v96c0 8.8 7.2 16 16 16s16-7.2 16-16v-43.2l34.7 52.1c3.9 5.8 11.2 8.5 17.9 6.4 6.8-2 11.4-8.2 11.4-15.3v-96c0-8.8-7.2-16-16-16s-16 7.2-16 16v43.2l-34.7-52.1zM160 112c0-8.8-7.2-16-16-16s-16 7.2-16 16v64c0 26.5 21.5 48 48 48s48-21.5 48-48v-64c0-8.8-7.2-16-16-16s-16 7.2-16 16v64c0 8.8-7.2 16-16 16s-16-7.2-16-16v-64z"/></svg>

<svg xmlns="http://www.w3.org/2000/svg" viewBox="0 0 512 512" height="1em" width="1em">
<!--! Font Awesome Free 6.1.2 by @fontawesome - https://fontawesome.com License - https://fontawesome.com/license/free (Icons: CC BY 4.0, Fonts: SIL OFL 1.1, Code: MIT License) Copyright 2022 Fonticons, Inc.-->
  <path d="M480 224C497.7 224 512 238.3 512 256C512 273.7 497.7 288 480 288H368V462.5L369.5 464H456C469.3 464 480 474.7 480 488C480 501.3 469.3 512 456 512H360C353.9 512 347.1 509.7 343.5 505.4L214.9 384H87.65C39.24 384 0 344.8 0 296.3V240C0 107.5 107.5 0 240 0C367.2 0 471.2 98.91 479.5 224H480zM320 288H274.4L241.1 343.5L320 417.2V288zM285.3 103.1C281.4 97.26 274.1 94.64 267.4 96.69C260.6 98.73 256 104.9 256 112V208C256 216.8 263.2 224 272 224C280.8 224 288 216.8 288 208V164.8L322.7 216.9C326.6 222.7 333.9 225.4 340.6 223.3C347.4 221.3 352 215.1 352 208V112C352 103.2 344.8 96 336 96C327.2 96 320 103.2 320 112V155.2L285.3 103.1zM160 112C160 103.2 152.8 96 144 96C135.2 96 128 103.2 128 112V176C128 202.5 149.5 224 176 224C202.5 224 224 202.5 224 176V112C224 103.2 216.8 96 208 96C199.2 96 192 103.2 192 112V176C192 184.8 184.8 192 176 192C167.2 192 160 184.8 160 176V112z"/>
</svg>
